img/home/icon-tutorial-shoutem.svg

<svg height="35" viewBox="0 0 113 35" width="113" xmlns="http://www.w3.org/2000/svg"><g fill="#fff" fill-rule="evenodd" transform=""><path d="m1.66736808 30.9622108s1.75535393 1.9269839 4.70251609 1.9269839c1.69281853 0 3.16603604-.8531796 3.16603604-2.5280211 0-3.475754-8.49608752-2.6225744-8.49608752-7.8054207 0-2.8439321 2.5392278-4.3927023 5.39258687-4.3927023 3.32310168 0 4.85885454 1.73861 4.85885454 1.73861l-.97148 1.6433237s-1.34814674-1.4542169-3.94990993-1.4542169c-1.59901544 0-3.1354955.6955906-3.1354955 2.4649855 0 3.5080048 8.49608753 2.5595388 8.49608753 7.8054207 0 2.5917897-2.22582369 4.4557379-5.39258688 4.4557379-3.82483913 0-5.83106178-2.3066634-5.83106178-2.3066634z"/><path d="m37.6906628 18.1630506c4.608713 0 8.3390219 3.5395227 8.3390219 8.248136 0 4.8031666-3.7303089 8.4057249-8.3390219 8.4057249s-8.3390219-3.6025583-8.3390219-8.4057249c0-4.7086133 3.7303089-8.248136 8.3390219-8.248136zm0 14.7261441c3.3856371 0 6.1451931-2.7801635 6.1451931-6.4780081 0-3.6025583-2.759556-6.2889014-6.1451931-6.2889014s-6.1444659 2.6863431-6.1444659 6.2889014c0 3.6978446 2.7588288 6.4780081 6.1444659 6.4780081z"/><path d="m47.9115637 18.5427302h2.1320206v9.5432978c0 2.4965032.3766667 4.7086133 3.4176319 4.7086133 3.6052381 0 5.8310618-3.1913609 5.8310618-6.6363302v-7.6155809h2.1312934v15.8952347h-2.068758v-2.3696991c0-.6955906.0625354-1.264377.0625354-1.264377h-.0625354c-.6268083 1.5487702-2.6962935 4.0130227-6.1757336 4.0130227-3.6997683 0-5.2675161-2.0222702-5.2675161-6.1620971z"/><path d="m65.2811326 20.3297164h-2.0687581v-1.8009127h2.1007529v-5.1931079h2.1000258v5.1931079h4.9599292v1.8009127h-4.9599292v8.1044734c0 3.7286294 2.3516216 4.2028624 3.5427027 4.2028624.439202 0 .7213384-.0637685.7213384-.0637685v1.9277168s-.3446718.0637686-.9096718.0637686c-1.8178893 0-5.4863899-.6010372-5.4863899-5.9099547z"/><path d="m79.9849485 18.1630506c4.3578443 0 6.5843951 3.3819337 6.5843951 7.3319207 0 .3789466-.0632625 1.106055-.0632625 1.106055h-12.1013256c.0938031 4.0760583 2.853359 6.2881684 6.1131982 6.2881684 2.8846267 0 4.7970463-1.9269839 4.7970463-1.9269839l.9714801 1.6433236s-2.2883591 2.2113771-5.8310618 2.2113771c-4.7025161 0-8.2452188-3.4127185-8.2452188-8.3104386 0-5.2143641 3.511435-8.3434223 7.774749-8.3434223zm4.4211068 6.6678479c-.1257979-3.3174321-2.1320206-4.8662023-4.4836422-4.8662023-2.6330309 0-4.9213899 1.6748415-5.4238545 4.8662023z"/><path d="m88.7646268 18.5427302h2.1007529v2.3696991c0 .6955906-.0625354 1.264377-.0625354 1.264377h.0625354c.751879-2.1490745 3.2605662-4.0137557 5.7052638-4.0137557 2.9158945 0 4.4203795 1.3589304 4.8908495 3.9822379h.062535c.847137-2.1490745 3.135496-3.9822379 5.800522-3.9822379 3.824112 0 5.235521 2.2443608 5.235521 6.1628301v10.1120842h-2.132021v-9.5748156c0-2.5917896-.533005-4.7408641-3.417632-4.7408641-2.41343 0-4.388385 2.1490745-4.984652 4.4879887-.219601.6948576-.28141 1.4534838-.28141 2.3066635v7.5210275h-2.1320201v-9.5748156c0-2.4019498-.345399-4.7408641-3.3238288-4.7408641-2.5704955 0-4.5141828 2.2443609-5.1722587 4.6770955-.1570656.6640728-.219601 1.3904483-.219601 2.1175567v7.5210275h-2.1320206z"/><path d="m71.7448198 16.3592061c-.5424582 0-1.0594659-.2924559-1.349601-.763757-.2843179-.4603066-.3148584-1.0254281-.0858044-1.5187184l5.4623938-13.120202c.0072716-.01759134.0152703-.03518267.023269-.05204103.2697748-.54972913.8165959-.8905612 1.4252252-.8905612.4232047 0 .821686.16638469 1.1220013.4691022l7.5653282 7.62584255c.3606693.36428718.5271879.88396445.4442922 1.39191417-.0836229.50794971-.4064801.94700001-.863861 1.17495441-.0167246.0080627-.0341764.0161254-.0509009.0234551l-13.0153604 5.506087c-.2159652.1018832-.443565.1539242-.676982.1539242zm5.5540155-14.33620288-5.1191764 12.29707428 12.1994917-5.16085714z"/><path d="m22.2022458 18.1630506c-3.5739704 0-5.6747233 2.4334676-6.2702638 3.9507201h-.0625354s.0625354-.5687864.0625354-1.2958949v-7.48218h-2.1320206v21.1022691h2.1320206v-7.615581c0-.7586262.0625354-1.4857346.2508687-2.1175566.7213385-2.6548252 3.0409653-4.5187735 5.7372587-4.5187735 3.0409652 0 3.4169048 2.2121101 3.4169048 4.7086133v9.5432978h2.1320205v-10.1120842c0-3.9184693-1.3794144-6.1628301-5.2667889-6.1628301"/></g></svg>

<?xml version="1.0" encoding="UTF-8"?>
<svg width="113px" height="35px" viewBox="0 0 113 35" version="1.1" xmlns="http://www.w3.org/2000/svg" xmlns:xlink="http://www.w3.org/1999/xlink">
    <!-- Generator: sketchtool 46.2 (44496) - http://www.bohemiancoding.com/sketch -->
    <title>13688D4E-D6FC-4E38-B863-393D717333EB</title>
    <desc>Created with sketchtool.</desc>
    <defs></defs>
    <g id="----A1.12-SE-Web---Developers" stroke="none" stroke-width="1" fill="none" fill-rule="evenodd">
        <g id="A1.12-SE-Web---Developers-v16.5" transform="translate(-304.000000, -4412.000000)" fill="#FFFFFF">
            <g id="Testimonial-#2" transform="translate(0.000000, 3577.000000)">
                <g id="Group-16" transform="translate(205.000000, 676.000000)">
                    <g id="Group-9" transform="translate(0.000000, 86.000000)">
                        <g id="Group-13">
                            <g id="Group-11">
                                <g id="icon-tutorial-shoutem" transform="translate(99.000000, 73.000000)">
                                    <path d="M1.66736808,30.9622108 C1.66736808,30.9622108 3.42272201,32.8891947 6.36988417,32.8891947 C8.0627027,32.8891947 9.53592021,32.0360151 9.53592021,30.3611736 C9.53592021,26.8854196 1.03983269,27.7385992 1.03983269,22.5557529 C1.03983269,19.7118208 3.57906049,18.1630506 6.43241956,18.1630506 C9.75552124,18.1630506 11.2912741,19.9016606 11.2912741,19.9016606 L10.3197941,21.5449843 C10.3197941,21.5449843 8.97164736,20.0907674 6.36988417,20.0907674 C4.77086873,20.0907674 3.23438867,20.786358 3.23438867,22.5557529 C3.23438867,26.0637577 11.7304762,25.1152917 11.7304762,30.3611736 C11.7304762,32.9529633 9.50465251,34.8169115 6.33788932,34.8169115 C2.51305019,34.8169115 0.506827542,32.5102481 0.506827542,32.5102481 L1.66736808,30.9622108" id="Fill-1"></path>
                                    <path d="M37.6906628,18.1630506 C42.2993758,18.1630506 46.0296847,21.7025733 46.0296847,26.4111866 C46.0296847,31.2143532 42.2993758,34.8169115 37.6906628,34.8169115 C33.0819498,34.8169115 29.3516409,31.2143532 29.3516409,26.4111866 C29.3516409,21.7025733 33.0819498,18.1630506 37.6906628,18.1630506 L37.6906628,18.1630506 Z M37.6906628,32.8891947 C41.0762999,32.8891947 43.8358559,30.1090312 43.8358559,26.4111866 C43.8358559,22.8086283 41.0762999,20.1222852 37.6906628,20.1222852 C34.3050257,20.1222852 31.5461969,22.8086283 31.5461969,26.4111866 C31.5461969,30.1090312 34.3050257,32.8891947 37.6906628,32.8891947 L37.6906628,32.8891947 Z" id="Fill-2"></path>
                                    <path d="M47.9115637,18.5427302 L50.0435843,18.5427302 L50.0435843,28.086028 C50.0435843,30.5825312 50.420251,32.7946413 53.4612162,32.7946413 C57.0664543,32.7946413 59.292278,29.6032804 59.292278,26.1583111 L59.292278,18.5427302 L61.4235714,18.5427302 L61.4235714,34.4379649 L59.3548134,34.4379649 L59.3548134,32.0682658 C59.3548134,31.3726752 59.4173488,30.8038888 59.4173488,30.8038888 L59.3548134,30.8038888 C58.7280051,32.352659 56.6585199,34.8169115 53.1790798,34.8169115 C49.4793115,34.8169115 47.9115637,32.7946413 47.9115637,28.6548144 L47.9115637,18.5427302" id="Fill-3"></path>
                                    <path d="M65.2811326,20.3297164 L63.2123745,20.3297164 L63.2123745,18.5288037 L65.3131274,18.5288037 L65.3131274,13.3356958 L67.4131532,13.3356958 L67.4131532,18.5288037 L72.3730824,18.5288037 L72.3730824,20.3297164 L67.4131532,20.3297164 L67.4131532,28.4341898 C67.4131532,32.1628192 69.7647748,32.6370522 70.9558559,32.6370522 C71.3950579,32.6370522 71.6771943,32.5732837 71.6771943,32.5732837 L71.6771943,34.5010005 C71.6771943,34.5010005 71.3325225,34.5647691 70.7675225,34.5647691 C68.9496332,34.5647691 65.2811326,33.9637319 65.2811326,28.6548144 L65.2811326,20.3297164" id="Fill-4"></path>
                                    <path d="M79.9849485,18.1630506 C84.3427928,18.1630506 86.5693436,21.5449843 86.5693436,25.4949713 C86.5693436,25.8739179 86.5060811,26.6010263 86.5060811,26.6010263 L74.4047555,26.6010263 C74.4985586,30.6770846 77.2581145,32.8891947 80.5179537,32.8891947 C83.4025804,32.8891947 85.315,30.9622108 85.315,30.9622108 L86.2864801,32.6055344 C86.2864801,32.6055344 83.998121,34.8169115 80.4554183,34.8169115 C75.7529022,34.8169115 72.2101995,31.404193 72.2101995,26.5064729 C72.2101995,21.2921088 75.7216345,18.1630506 79.9849485,18.1630506 L79.9849485,18.1630506 Z M84.4060553,24.8308985 C84.2802574,21.5134664 82.2740347,19.9646962 79.9224131,19.9646962 C77.2893822,19.9646962 75.0010232,21.6395377 74.4985586,24.8308985 L84.4060553,24.8308985 L84.4060553,24.8308985 Z" id="Fill-5"></path>
                                    <path d="M88.7646268,18.5427302 L90.8653797,18.5427302 L90.8653797,20.9124293 C90.8653797,21.6080199 90.8028443,22.1768063 90.8028443,22.1768063 L90.8653797,22.1768063 C91.6172587,20.0277318 94.1259459,18.1630506 96.5706435,18.1630506 C99.486538,18.1630506 100.991023,19.521981 101.461493,22.1452885 L101.524028,22.1452885 C102.371165,19.996214 104.659524,18.1630506 107.32455,18.1630506 C111.148662,18.1630506 112.560071,20.4074114 112.560071,24.3258807 L112.560071,34.4379649 L110.42805,34.4379649 L110.42805,24.8631493 C110.42805,22.2713597 109.895045,20.1222852 107.010418,20.1222852 C104.596988,20.1222852 102.622033,22.2713597 102.025766,24.6102739 C101.806165,25.3051315 101.744356,26.0637577 101.744356,26.9169374 L101.744356,34.4379649 L99.6123359,34.4379649 L99.6123359,24.8631493 C99.6123359,22.4611995 99.2669369,20.1222852 96.2885071,20.1222852 C93.7180116,20.1222852 91.7743243,22.3666461 91.1162484,24.7993807 C90.9591828,25.4634535 90.8966474,26.189829 90.8966474,26.9169374 L90.8966474,34.4379649 L88.7646268,34.4379649 L88.7646268,18.5427302" id="Fill-6"></path>
                                    <path d="M71.7448198,16.3592061 C71.2023616,16.3592061 70.6853539,16.0667502 70.3952188,15.5954491 C70.1109009,15.1351425 70.0803604,14.570021 70.3094144,14.0767307 L75.7718082,0.956528695 C75.7790798,0.938937362 75.7870785,0.92134603 75.7950772,0.90448767 C76.064852,0.354758535 76.6116731,0.0139264714 77.2203024,0.0139264714 C77.6435071,0.0139264714 78.0419884,0.180311156 78.3423037,0.483028666 L85.9076319,8.10887122 C86.2683012,8.4731584 86.4348198,8.99283567 86.3519241,9.50078539 C86.2683012,10.0087351 85.945444,10.4477854 85.4880631,10.6757398 C85.4713385,10.6838025 85.4538867,10.6918652 85.4371622,10.6991949 L72.4218018,16.2052819 C72.2058366,16.3071651 71.9782368,16.3592061 71.7448198,16.3592061 L71.7448198,16.3592061 Z M77.2988353,2.02300322 L72.1796589,14.3200775 L84.3791506,9.15922036 L77.2988353,2.02300322 L77.2988353,2.02300322 Z" id="Fill-7"></path>
                                    <path d="M22.2022458,18.1630506 C18.6282754,18.1630506 16.5275225,20.5965182 15.931982,22.1137707 L15.8694466,22.1137707 C15.8694466,22.1137707 15.931982,21.5449843 15.931982,20.8178758 L15.931982,13.3356958 L13.7999614,13.3356958 L13.7999614,34.4379649 L15.931982,34.4379649 L15.931982,26.8223839 C15.931982,26.0637577 15.9945174,25.3366493 16.1828507,24.7048273 C16.9041892,22.0500021 19.223816,20.1860538 21.9201094,20.1860538 C24.9610746,20.1860538 25.3370142,22.3981639 25.3370142,24.8946671 L25.3370142,34.4379649 L27.4690347,34.4379649 L27.4690347,24.3258807 C27.4690347,20.4074114 26.0896203,18.1630506 22.2022458,18.1630506" id="Fill-8"></path>
                                </g>
                            </g>
                        </g>
                    </g>
                </g>
            </g>
        </g>
    </g>
</svg>
